Suru++-Ubuntu/apps/scalable/electrum-ltc.svg

<!-- Generator: Gravit.io -->
<svg width="256" height="256" style="isolation:isolate" viewBox="0 0 256 256" xmlns="http://www.w3.org/2000/svg">
 <defs>
  <clipPath id="_clipPath_n9p7QwJQcxATiUc7c83yQHPYXBXdtwXg">
   <rect width="256" height="256"/>
  </clipPath>
 </defs>
 <g clip-path="url(#_clipPath_n9p7QwJQcxATiUc7c83yQHPYXBXdtwXg)">
  <defs>
   <filter id="xT7zxbSrp6LvV5C9yoyWTHxMTZP0maSb" x="-200%" y="-200%" width="400%" height="400%" color-interpolation-filters="sRGB">
    <feGaussianBlur stdDeviation="1.16" xmlns="http://www.w3.org/2000/svg"/>
   </filter>
  </defs>
  <g filter="url(#xT7zxbSrp6LvV5C9yoyWTHxMTZP0maSb)" opacity=".1">
   <path d="m-26.274-32.918c0.316 0 0.361 0.048 0.361 0.387v0.271c0 0.339-0.045 0.387-0.361 0.387h-0.321c-0.316 0-0.361-0.048-0.361-0.387v-0.271c0-0.339 0.045-0.387 0.361-0.387h0.321z" fill="rgb(0,0,0)"/>
  </g>
  <defs>
   <filter id="QViaMcm6cKX1G0PB7NwG5VI7EI8jOEAJ" x="-200%" y="-200%" width="400%" height="400%" color-interpolation-filters="sRGB">
    <feGaussianBlur stdDeviation="0.42769382780024773" xmlns="http://www.w3.org/2000/svg"/>
   </filter>
  </defs>
  <g filter="url(#QViaMcm6cKX1G0PB7NwG5VI7EI8jOEAJ)" opacity=".2">
   <path d="m-26.27-32.931c0.323 0 0.369 0.05 0.369 0.397v0.277c0 0.347-0.046 0.396-0.369 0.396h-0.329c-0.322 0-0.369-0.049-0.369-0.396v-0.277c0-0.347 0.047-0.397 0.369-0.397h0.329z" fill="rgb(0,0,0)"/>
  </g>
  <path d="m165.685 11.947c74.055 0 84.639 10.557 84.639 84.544v59.251c0 73.986-10.584 84.543-84.639 84.543h-75.37c-74.055 0-84.639-10.557-84.639-84.543v-59.251c0-73.987 10.584-84.544 84.639-84.544h75.37z" fill="rgb(0,158,255)"/>
  <path d="m107.737 61.325c-5.694-0.131-11.126 1.099-15.987 3.905-10.463 6.041-15.852 18.056-16.667 32.241-11.873 7.798-19.583 18.465-19.583 30.544 0 12.08 7.71 22.747 19.583 30.544 0.815 14.184 6.21 26.2 16.672 32.241 10.462 6.04 23.555 4.698 36.245-1.686 12.689 6.382 25.789 7.725 36.25 1.686 10.462-6.04 15.846-18.053 16.662-32.236 11.876-7.797 19.588-18.467 19.588-30.549 0-12.081-7.712-22.751-19.588-30.549-0.815-14.183-6.2-26.195-16.662-32.236-10.465-6.041-23.567-4.702-36.261 1.687-6.792-3.417-13.692-5.441-20.252-5.592zm40.526 5.728c4.797-0.125 9.239 0.903 13.12 3.144 7.49 4.324 12.06 12.745 13.458 23.706-6.631-3.448-14.255-6.143-22.569-7.947-5.718-6.296-11.853-11.552-18.152-15.569 4.91-2.056 9.684-3.219 14.143-3.334zm-40.526 5e-3c4.455 0.116 9.227 1.275 14.132 3.329-6.298 4.017-12.435 9.273-18.152 15.569-8.311 1.804-15.935 4.499-22.563 7.947 1.399-10.96 5.98-19.383 13.468-23.706 3.881-2.241 8.319-3.264 13.115-3.139zm20.258 6.321c4.902 2.772 9.816 6.451 14.556 10.879-4.703-0.583-9.567-0.892-14.551-0.892-4.988 0-9.855 0.309-14.562 0.892 4.74-4.429 9.654-8.106 14.557-10.879zm5e-3 15.732c7.444 0 14.579 0.747 21.258 2.072 4.49 5.124 8.713 10.932 12.435 17.38 3.723 6.448 6.642 13.003 8.834 19.452-2.192 6.449-5.112 13.006-8.834 19.452-3.722 6.448-7.94 12.258-12.429 17.38-6.682 1.326-13.818 2.073-21.264 2.073s-14.582-0.747-21.264-2.073c-4.489-5.123-8.712-10.926-12.435-17.374s-6.641-13.008-8.834-19.458c2.192-6.449 5.111-13.004 8.834-19.452s7.946-12.256 12.435-17.38c6.682-1.325 13.818-2.072 21.264-2.072zm-30.62 4.422c-2.857 3.783-5.553 7.841-8.045 12.158-2.495 4.321-4.658 8.692-6.506 13.06-1.467-6.321-2.199-12.42-2.149-18.054 4.852-2.86 10.496-5.274 16.7-7.164zm61.235 0c6.204 1.89 11.847 4.304 16.699 7.164 0.05 5.633-0.677 11.728-2.143 18.049-1.847-4.366-4.013-8.732-6.506-13.05-2.492-4.317-5.194-8.38-8.05-12.163zm-41.478 6.631-5.385 23.646-9.373 1.42-2.23 8.355 9.71-1.474-4.14 18.185h40.384l3.9-11.14h-25.038l2.203-9.667 9.742-1.474 2.23-8.355-10.079 1.528 4.787-21.024h-16.711zm63.824 4.335c8.792 6.693 13.795 14.869 13.795 23.516s-5.003 16.824-13.795 23.516c-0.329-7.465-1.808-15.411-4.401-23.51 2.596-8.104 4.072-16.054 4.401-23.522zm-105.927 6e-3c0.329 7.465 1.806 15.41 4.401 23.51-2.594 8.101-4.073 16.045-4.401 23.51-8.789-6.691-13.79-14.865-13.79-23.51s5.001-16.819 13.79-23.51zm7.795 32.779c1.848 4.368 4.012 8.736 6.506 13.056 2.492 4.317 5.189 8.375 8.045 12.157-6.204-1.89-11.848-4.304-16.7-7.164-0.05-5.633 0.684-11.729 2.149-18.049zm90.342 0c1.466 6.321 2.194 12.416 2.143 18.049-4.852 2.86-10.495 5.275-16.699 7.164 2.856-3.782 5.552-7.84 8.045-12.157 2.493-4.318 4.663-8.69 6.511-13.056zm-92.017 24.843c6.628 3.448 14.252 6.143 22.563 7.948 5.716 6.294 11.854 11.546 18.152 15.563-10.187 4.264-19.761 4.512-27.247 0.19-7.488-4.323-12.069-12.741-13.468-23.701zm93.687 0c-1.399 10.959-5.975 19.378-13.463 23.701s-17.068 4.076-27.258-0.19c6.299-4.017 12.435-9.269 18.152-15.563 8.314-1.804 15.938-4.5 22.569-7.948zm-61.398 9.645c4.705 0.583 9.571 0.892 14.557 0.892 4.984 0 9.848-0.309 14.551-0.892-4.741 4.429-9.652 8.107-14.556 10.879-4.903-2.772-9.812-6.451-14.552-10.879z" fill="rgb(255,255,255)"/>
  <g opacity=".1">
   <path d="m250.201 84.236-205.409 153.031c11.562 2.311 26.427 3.018 45.523 3.018h75.37c74.055 0 84.639-10.557 84.639-84.543v-59.251c0-4.303-0.041-8.37-0.123-12.255z" fill="rgb(255,255,255)"/>
  </g>
  <clipPath id="_clipPath_0uATT0KvHB8fODusH9U3vUmojjLfK7GL">
   <path d="m165.685 11.947c74.055 0 84.639 10.557 84.639 84.544v59.251c0 73.986-10.584 84.543-84.639 84.543h-75.37c-74.055 0-84.639-10.557-84.639-84.543v-59.251c0-73.987 10.584-84.544 84.639-84.544h75.37z" fill="rgb(255,255,255)"/>
  </clipPath>
  <g clip-path="url(#_clipPath_0uATT0KvHB8fODusH9U3vUmojjLfK7GL)">
   <g opacity=".6">
    <linearGradient id="_lgradient_0" x1=".51666667" x2=".51666667" y2="1">
     <stop style="stop-color:rgb(255,255,255)" offset="0"/>
     <stop stop-opacity=".09803922" style="stop-color:rgb(255,255,255)" offset=".125"/>
     <stop stop-opacity=".09803922" style="stop-color:rgb(0,0,0)" offset=".92500001"/>
     <stop stop-opacity=".49803922" style="stop-color:rgb(0,0,0)" offset="1"/>
    </linearGradient>
    <path d="m165.685 11.947c74.055 0 84.639 10.557 84.639 84.544v59.251c0 73.986-10.584 84.543-84.639 84.543h-75.37c-74.055 0-84.639-10.557-84.639-84.543v-59.251c0-73.987 10.584-84.544 84.639-84.544h75.37z" fill="none" stroke="url(#_lgradient_0)" stroke-linecap="round" stroke-linejoin="round" stroke-width="4.077" vector-effect="non-scaling-stroke"/>
   </g>
  </g>
 </g>
</svg>

<?xml version="1.0" standalone="no"?><!-- Generator: Gravit.io --><svg xmlns="http://www.w3.org/2000/svg" xmlns:xlink="http://www.w3.org/1999/xlink" style="isolation:isolate" viewBox="0 0 256 256" width="256" height="256"><defs><clipPath id="_clipPath_n9p7QwJQcxATiUc7c83yQHPYXBXdtwXg"><rect width="256" height="256"/></clipPath></defs><g clip-path="url(#_clipPath_n9p7QwJQcxATiUc7c83yQHPYXBXdtwXg)"><defs><filter id="xT7zxbSrp6LvV5C9yoyWTHxMTZP0maSb" x="-200%" y="-200%" width="400%" height="400%" filterUnits="objectBoundingBox" color-interpolation-filters="sRGB"><feGaussianBlur xmlns="http://www.w3.org/2000/svg" stdDeviation="1.16"/></filter></defs><g opacity="0.1" filter="url(#xT7zxbSrp6LvV5C9yoyWTHxMTZP0maSb)"><path d=" M -26.274 -32.918 C -25.958 -32.918 -25.913 -32.87 -25.913 -32.531 L -25.913 -32.26 C -25.913 -31.921 -25.958 -31.873 -26.274 -31.873 L -26.595 -31.873 C -26.911 -31.873 -26.956 -31.921 -26.956 -32.26 L -26.956 -32.531 C -26.956 -32.87 -26.911 -32.918 -26.595 -32.918 L -26.274 -32.918 Z " fill="rgb(0,0,0)"/></g><defs><filter id="QViaMcm6cKX1G0PB7NwG5VI7EI8jOEAJ" x="-200%" y="-200%" width="400%" height="400%" filterUnits="objectBoundingBox" color-interpolation-filters="sRGB"><feGaussianBlur xmlns="http://www.w3.org/2000/svg" stdDeviation="0.42769382780024773"/></filter></defs><g opacity="0.2" filter="url(#QViaMcm6cKX1G0PB7NwG5VI7EI8jOEAJ)"><path d=" M -26.27 -32.931 C -25.947 -32.931 -25.901 -32.881 -25.901 -32.534 L -25.901 -32.257 C -25.901 -31.91 -25.947 -31.861 -26.27 -31.861 L -26.599 -31.861 C -26.921 -31.861 -26.968 -31.91 -26.968 -32.257 L -26.968 -32.534 C -26.968 -32.881 -26.921 -32.931 -26.599 -32.931 L -26.27 -32.931 Z " fill="rgb(0,0,0)"/></g><path d=" M 165.685 11.947 C 239.74 11.947 250.324 22.504 250.324 96.491 L 250.324 155.742 C 250.324 229.728 239.74 240.285 165.685 240.285 L 90.315 240.285 C 16.26 240.285 5.676 229.728 5.676 155.742 L 5.676 96.491 C 5.676 22.504 16.26 11.947 90.315 11.947 L 165.685 11.947 Z " fill="rgb(0,158,255)"/><path d=" M 107.737 61.325 C 102.043 61.194 96.611 62.424 91.75 65.23 C 81.287 71.271 75.898 83.286 75.083 97.471 C 63.21 105.269 55.5 115.936 55.5 128.015 C 55.5 140.095 63.21 150.762 75.083 158.559 C 75.898 172.743 81.293 184.759 91.755 190.8 C 102.217 196.84 115.31 195.498 128 189.114 C 140.689 195.496 153.789 196.839 164.25 190.8 C 174.712 184.76 180.096 172.747 180.912 158.564 C 192.788 150.767 200.5 140.097 200.5 128.015 C 200.5 115.934 192.788 105.264 180.912 97.466 C 180.097 83.283 174.712 71.271 164.25 65.23 C 153.785 59.189 140.683 60.528 127.989 66.917 C 121.197 63.5 114.297 61.476 107.737 61.325 Z  M 148.263 67.053 C 153.06 66.928 157.502 67.956 161.383 70.197 C 168.873 74.521 173.443 82.942 174.841 93.903 C 168.21 90.455 160.586 87.76 152.272 85.956 C 146.554 79.66 140.419 74.404 134.12 70.387 C 139.03 68.331 143.804 67.168 148.263 67.053 Z  M 107.737 67.058 C 112.192 67.174 116.964 68.333 121.869 70.387 C 115.571 74.404 109.434 79.66 103.717 85.956 C 95.406 87.76 87.782 90.455 81.154 93.903 C 82.553 82.943 87.134 74.52 94.622 70.197 C 98.503 67.956 102.941 66.933 107.737 67.058 Z  M 127.995 73.379 C 132.897 76.151 137.811 79.83 142.551 84.258 C 137.848 83.675 132.984 83.366 128 83.366 C 123.012 83.366 118.145 83.675 113.438 84.258 C 118.178 79.829 123.092 76.152 127.995 73.379 Z  M 128 89.111 C 135.444 89.111 142.579 89.858 149.258 91.183 C 153.748 96.307 157.971 102.115 161.693 108.563 C 165.416 115.011 168.335 121.566 170.527 128.015 C 168.335 134.464 165.415 141.021 161.693 147.467 C 157.971 153.915 153.753 159.725 149.264 164.847 C 142.582 166.173 135.446 166.92 128 166.92 C 120.554 166.92 113.418 166.173 106.736 164.847 C 102.247 159.724 98.024 153.921 94.301 147.473 C 90.578 141.025 87.66 134.465 85.467 128.015 C 87.659 121.566 90.578 115.011 94.301 108.563 C 98.024 102.115 102.247 96.307 106.736 91.183 C 113.418 89.858 120.554 89.111 128 89.111 Z  M 97.38 93.533 C 94.523 97.316 91.827 101.374 89.335 105.691 C 86.84 110.012 84.677 114.383 82.829 118.751 C 81.362 112.43 80.63 106.331 80.68 100.697 C 85.532 97.837 91.176 95.423 97.38 93.533 Z  M 158.615 93.533 C 164.819 95.423 170.462 97.837 175.314 100.697 C 175.364 106.33 174.637 112.425 173.171 118.746 C 171.324 114.38 169.158 110.014 166.665 105.696 C 164.173 101.379 161.471 97.316 158.615 93.533 Z  M 117.137 100.164 L 111.752 123.81 L 102.379 125.23 L 100.149 133.585 L 109.859 132.111 L 105.719 150.296 L 146.103 150.296 L 150.003 139.156 L 124.965 139.156 L 127.168 129.489 L 136.91 128.015 L 139.14 119.66 L 129.061 121.188 L 133.848 100.164 L 117.137 100.164 Z  M 180.961 104.499 C 189.753 111.192 194.756 119.368 194.756 128.015 C 194.756 136.662 189.753 144.839 180.961 151.531 C 180.632 144.066 179.153 136.12 176.56 128.021 C 179.156 119.917 180.632 111.967 180.961 104.499 Z  M 75.034 104.505 C 75.363 111.97 76.84 119.915 79.435 128.015 C 76.841 136.116 75.362 144.06 75.034 151.525 C 66.245 144.834 61.244 136.66 61.244 128.015 C 61.244 119.37 66.245 111.196 75.034 104.505 Z  M 82.829 137.284 C 84.677 141.652 86.841 146.02 89.335 150.34 C 91.827 154.657 94.524 158.715 97.38 162.497 C 91.176 160.607 85.532 158.193 80.68 155.333 C 80.63 149.7 81.364 143.604 82.829 137.284 Z  M 173.171 137.284 C 174.637 143.605 175.365 149.7 175.314 155.333 C 170.462 158.193 164.819 160.608 158.615 162.497 C 161.471 158.715 164.167 154.657 166.66 150.34 C 169.153 146.022 171.323 141.65 173.171 137.284 Z  M 81.154 162.127 C 87.782 165.575 95.406 168.27 103.717 170.075 C 109.433 176.369 115.571 181.621 121.869 185.638 C 111.682 189.902 102.108 190.15 94.622 185.828 C 87.134 181.505 82.553 173.087 81.154 162.127 Z  M 174.841 162.127 C 173.442 173.086 168.866 181.505 161.378 185.828 C 153.89 190.151 144.31 189.904 134.12 185.638 C 140.419 181.621 146.555 176.369 152.272 170.075 C 160.586 168.271 168.21 165.575 174.841 162.127 Z  M 113.443 171.772 C 118.148 172.355 123.014 172.664 128 172.664 C 132.984 172.664 137.848 172.355 142.551 171.772 C 137.81 176.201 132.899 179.879 127.995 182.651 C 123.092 179.879 118.183 176.2 113.443 171.772 Z " fill="rgb(255,255,255)"/><g opacity="0.1"><path d=" M 250.201 84.236 L 44.792 237.267 C 56.354 239.578 71.219 240.285 90.315 240.285 L 165.685 240.285 C 239.74 240.285 250.324 229.728 250.324 155.742 L 250.324 96.491 C 250.324 92.188 250.283 88.121 250.201 84.236 L 250.201 84.236 Z " fill="rgb(255,255,255)"/></g><clipPath id="_clipPath_0uATT0KvHB8fODusH9U3vUmojjLfK7GL"><path d=" M 165.685 11.947 C 239.74 11.947 250.324 22.504 250.324 96.491 L 250.324 155.742 C 250.324 229.728 239.74 240.285 165.685 240.285 L 90.315 240.285 C 16.26 240.285 5.676 229.728 5.676 155.742 L 5.676 96.491 C 5.676 22.504 16.26 11.947 90.315 11.947 L 165.685 11.947 Z " fill="rgb(255,255,255)"/></clipPath><g clip-path="url(#_clipPath_0uATT0KvHB8fODusH9U3vUmojjLfK7GL)"><g opacity="0.6"><linearGradient id="_lgradient_0" x1="0.5166666666666668" y1="0" x2="0.5166666666666666" y2="1.0000000000000002"><stop offset="0%" stop-opacity="1" style="stop-color:rgb(255,255,255)"/><stop offset="12.5%" stop-opacity="0.09803922" style="stop-color:rgb(255,255,255)"/><stop offset="92.500001%" stop-opacity="0.09803922" style="stop-color:rgb(0,0,0)"/><stop offset="100%" stop-opacity="0.49803922" style="stop-color:rgb(0,0,0)"/></linearGradient><path d=" M 165.685 11.947 C 239.74 11.947 250.324 22.504 250.324 96.491 L 250.324 155.742 C 250.324 229.728 239.74 240.285 165.685 240.285 L 90.315 240.285 C 16.26 240.285 5.676 229.728 5.676 155.742 L 5.676 96.491 C 5.676 22.504 16.26 11.947 90.315 11.947 L 165.685 11.947 Z " fill="none" vector-effect="non-scaling-stroke" stroke-width="4.077" stroke="url(#_lgradient_0)" stroke-linejoin="round" stroke-linecap="round" stroke-miterlimit="4"/></g></g></g></svg>
